aries-site/public/static/images/quote.svg

<svg fill="none" height="37" viewBox="0 0 52 37" width="52" xmlns="http://www.w3.org/2000/svg"><g fill="#01a982"><path d="m24.9963 25.1621c0 6.3513-4.5966 11.5-11.5002 11.5-6.90357 0-11.50001-5.1487-11.50001-11.5s4.59644-10.5 11.50001-10.5c6.9036 0 11.5002 4.1487 11.5002 10.5z"/><path d="m13.4961.662109-7.50001 11.499991 9.00001 6 11-17.499991z"/><ellipse cx="8.95364" cy="13.1391" rx="3" ry="13.3085" transform="matrix(.88035486 .47431563 -.47431563 .88035486 7.30334 -2.674822)"/><path d="m50.9963 25.1621c0 6.3513-4.5966 11.5-11.5002 11.5s-11.5-5.1487-11.5-11.5 4.5964-10.5 11.5-10.5 11.5002 4.1487 11.5002 10.5z"/><path d="m39.4961.662109-7.5 11.499991 9 6 11-17.499991z"/><ellipse cx="34.9536" cy="13.1391" rx="3" ry="13.3085" transform="matrix(.88035486 .47431563 -.47431563 .88035486 10.414109 -15.007009)"/></g></svg>

<svg width="52" height="37" viewBox="0 0 52 37" fill="none" xmlns="http://www.w3.org/2000/svg">
<path d="M24.9963 25.1621C24.9963 31.5134 20.3997 36.6621 13.4961 36.6621C6.59253 36.6621 1.99609 31.5134 1.99609 25.1621C1.99609 18.8108 6.59253 14.6621 13.4961 14.6621C20.3997 14.6621 24.9963 18.8108 24.9963 25.1621Z" fill="#01A982"/>
<path d="M13.4961 0.662109L5.99609 12.1621L14.9961 18.1621L25.9961 0.662109H13.4961Z" fill="#01A982"/>
<ellipse cx="8.95364" cy="13.1391" rx="3" ry="13.3085" transform="rotate(28.3148 8.95364 13.1391)" fill="#01A982"/>
<path d="M50.9963 25.1621C50.9963 31.5134 46.3997 36.6621 39.4961 36.6621C32.5925 36.6621 27.9961 31.5134 27.9961 25.1621C27.9961 18.8108 32.5925 14.6621 39.4961 14.6621C46.3997 14.6621 50.9963 18.8108 50.9963 25.1621Z" fill="#01A982"/>
<path d="M39.4961 0.662109L31.9961 12.1621L40.9961 18.1621L51.9961 0.662109H39.4961Z" fill="#01A982"/>
<ellipse cx="34.9536" cy="13.1391" rx="3" ry="13.3085" transform="rotate(28.3148 34.9536 13.1391)" fill="#01A982"/>
</svg>
